build/location/LocationSolid.svg

<svg xmlns="http://www.w3.org/2000/svg" fill="none" viewBox="0 0 24 24" focusable="false"><path d="M0 0H24V24H0z"/><path fill="#74767B" fill-rule="evenodd" d="M11.6236 3.12992C14.8962 2.93229 18.3722 4.83979 18.8887 9.06708C18.9251 9.36477 18.947 9.64161 18.9505 9.89087C18.9694 11.2372 18.5414 12.5995 17.9293 13.8584C17.315 15.1218 16.4962 16.3198 15.6869 17.3491C14.8763 18.3802 14.0651 19.2548 13.4573 19.8712C13.153 20.1799 12.8986 20.4248 12.7194 20.5933C12.6298 20.6777 12.5589 20.7429 12.5099 20.7876C12.4846 20.8107 12.4592 20.8337 12.4336 20.8565L12.4316 20.8583C12.1856 21.0762 11.8149 21.0756 11.5688 20.8577C11.5428 20.8345 11.517 20.8111 11.4912 20.7876C11.4422 20.7429 11.3713 20.6777 11.2817 20.5933C11.1025 20.4248 10.8482 20.1799 10.5438 19.8712C9.93599 19.2548 9.12487 18.3802 8.31421 17.3491C7.50498 16.3198 6.68617 15.1218 6.07186 13.8584C5.45973 12.5995 5.0318 11.2372 5.05065 9.89087C5.11021 5.63742 8.3526 3.32746 11.6236 3.12992ZM7.85006 10.1C7.85006 7.80799 9.70808 5.94998 12.0001 5.94998C14.292 5.94998 16.1501 7.80799 16.1501 10.1C16.1501 12.392 14.292 14.25 12.0001 14.25C9.70808 14.25 7.85006 12.392 7.85006 10.1Z"/></svg>

<svg xmlns="http://www.w3.org/2000/svg" fill="none" viewBox="0 0 24 24" focusable="false"><path fill="#74767B" fill-rule="evenodd" d="M11.62 3.12c3.27-.19 6.75 1.71 7.26 5.94.04.3.06.58.07.83.01 1.34-.41 2.7-1.03 3.96-.61 1.27-1.43 2.46-2.24 3.49a29.4 29.4 0 0 1-2.97 3.25c-.09.08-.16.15-.2.19-.03.03-.06.05-.08.07-.25.22-.62.22-.87 0-.02-.02-.05-.04-.07-.07-.05-.04-.12-.11-.21-.19a29.424 29.424 0 0 1-2.97-3.25c-.81-1.03-1.63-2.22-2.24-3.49-.62-1.26-1.04-2.62-1.02-3.96.06-4.26 3.3-6.57 6.57-6.77M7.85 10.1c0-2.3 1.85-4.16 4.15-4.16 2.29 0 4.15 1.86 4.15 4.16 0 2.29-1.86 4.15-4.15 4.15-2.3 0-4.15-1.86-4.15-4.15"/></svg>
